X:1
T:Title
%%score { ( 1 4 ) | ( 2 3 ) }
L:1/8
M:4/4
K:F
V:1 treble nm="Grand Piano"
V:4 treble 
V:2 bass 
V:3 bass 
V:1
 z4 z2[Q:1/4=100] [CAc]2 | [CAc]3 [CGB] [CFA]2 .[CEG]2 | [A,DF]6 [DA]2 | [^CA]3 [CG] [DF]2 z G, | %4
[M:3/4] D6 |[M:1/4] F2 |[M:4/4] [DF]3 [DF] [EG][DF][CE]D | C2 F2 A2 A2 | %8
 [Ad]3 [CA] [Ac]B .[B,EG]2 |[M:3/4] [A,CF]6 |] %10
V:2
 z4 z2 F,2 | F,3 F, F,2 z B, | D,6 [D,F,]2 | [A,,E,]3 [A,,E,] [A,,A,]2 .[A,,A,]2 |[M:3/4] [D,F,]6 | %5
[M:1/4] [D,A,D]2 |[M:4/4] [B,,B,]3 [B,,B,] [B,,B,]2 z B, | [F,A,]2 [F,A,C]2 [F,CF]2 [F,C]2 | %8
 [^F,C]3 F,[K:treble] z G[K:bass] z C |[M:3/4] F,6 |] %10
V:3
 x8 | z4 z2 C,2 | x8 | x8 |[M:3/4] x6 |[M:1/4] x2 |[M:4/4] z4 z2 [B,,F,]2 | x8 | %8
 z4[K:treble] G,2[K:bass] C,2 |[M:3/4] x6 |] %10
V:4
 x8 | x8 | x8 | z4 z2 [^CE]2 |[M:3/4] x6 |[M:1/4] x2 |[M:4/4] x8 | x8 | x8 |[M:3/4] x6 |] %10

